%
(Header)
(Generated by gcodetools from Inkscape.)
(Using default header. To add your own header create file "header" in the output dir.)
M3
(Header end.)
G21 (All units in mm)

(Start cutting path id: path1)
(Change tool to Cylindrical cutter)

G00 Z3.000000
G00 X81.086114 Y22.336580

G01 Z-0.200000 F100.0(Penetrate)
G02 X78.729018 Y23.200680 Z-0.200000 I2.106916 J9.394151 F400.000000
G02 X76.739444 Y24.611310 Z-0.200000 I4.213109 J8.050612
G02 X75.550049 Y26.600556 Z-0.200000 I2.857012 J3.058444
G02 X74.908303 Y31.541320 Z-0.200000 I18.698457 J4.940764
G03 X74.422250 Y36.047239 Z-0.200000 I-21.128921 J0.000000
G03 X73.859107 Y36.347990 Z-0.200000 I-0.409633 J-0.089415
G02 X72.782310 Y36.040622 Z-0.200000 I-2.121496 J5.392353
G02 X67.918902 Y35.259220 Z-0.200000 I-20.212946 J110.278876
G01 X63.027892 Y34.583240 Z-0.200000
G01 X61.024184 Y30.422710 Z-0.200000
G02 X58.659043 Y26.642618 Z-0.200000 I-18.253040 J8.790667
G02 X57.091225 Y25.451930 Z-0.200000 I-3.097036 J2.450424
G02 X53.264045 Y24.693199 Z-0.200000 I-3.766973 J8.969448
G02 X46.430121 Y25.517930 Z-0.200000 I0.187396 J30.278974
G03 X42.891541 Y25.825658 Z-0.200000 I-2.806532 J-11.773444
G03 X40.261816 Y25.144170 Z-0.200000 I0.428215 J-7.066933
G02 X37.631114 Y24.314650 Z-0.200000 I-4.233997 J8.841301
G02 X35.165721 Y24.299310 Z-0.200000 I-1.280814 J7.725668
G02 X30.673510 Y25.493006 Z-0.200000 I3.264934 J21.336430
G02 X25.348683 Y27.924525 Z-0.200000 I17.323196 J44.982595
G02 X20.443470 Y31.092966 Z-0.200000 I16.274591 J30.576681
G02 X19.750561 Y32.504100 Z-0.200000 I1.090458 J1.411134
G02 X20.023988 Y33.517147 Z-0.200000 I2.013381 J0.000000
G02 X21.023179 Y34.689880 Z-0.200000 I3.751145 J-2.184016
G03 X22.265413 Y35.766257 Z-0.200000 I-19.107679 J23.306953
G03 X23.356141 Y36.825470 Z-0.200000 I-17.413809 J19.023128
G03 X25.465327 Y40.237928 Z-0.200000 I-6.685834 J6.490462
G03 X27.799791 Y49.522640 Z-0.200000 I-50.089529 J17.529895
G03 X27.530457 Y51.639101 Z-0.200000 I-3.779400 J0.594413
G03 X26.174943 Y53.269784 Z-0.200000 I-3.467356 J-1.503528
G03 X24.066508 Y54.270392 Z-0.200000 I-4.368467 J-6.483330
G03 X21.707969 Y54.618744 Z-0.200000 I-2.358539 J-7.810138
G02 X19.393970 Y55.032590 Z-0.200000 I0.000000 J6.676233
G02 X17.313084 Y56.242684 Z-0.200000 I2.426475 J6.566781
G02 X12.635378 Y63.042104 Z-0.200000 I10.007944 J11.893771
G02 X13.809273 Y66.343244 Z-0.200000 I2.646691 J0.918119
G02 X14.418435 Y66.344199 Z-0.200000 I0.305356 J-0.494078
G02 X16.682369 Y64.580004 Z-0.200000 I-6.744387 J-10.989568
G03 X18.955739 Y62.545203 Z-0.200000 I24.553542 J25.144958
G03 X19.326184 Y62.412774 Z-0.200000 I0.370445 J0.451908
G03 X19.560048 Y62.603288 Z-0.200000 I0.000000 J0.238796
G03 X19.750561 Y64.468344 Z-0.200000 I-9.033851 J1.865056
G02 X20.808000 Y67.350746 Z-0.200000 I4.457195 J0.000000
G02 X23.090859 Y68.408184 Z-0.200000 I2.282859 J-1.935468
G03 X24.112161 Y68.842912 Z-0.200000 I0.000000 J1.417031
G03 X24.546886 Y69.922014 Z-0.200000 I-1.121945 J1.079102
G02 X25.340603 Y74.030781 Z-0.200000 I11.031615 J0.000000
G02 X29.787013 Y82.978944 Z-0.200000 I58.368914 J-23.425150
G02 X34.969692 Y89.539094 Z-0.200000 I28.089135 J-16.863810
G02 X44.277543 Y97.149341 Z-0.200000 I47.373193 J-48.443449
G02 X52.031658 Y101.033680 Z-0.200000 I18.487706 J-27.224351
G02 X59.020475 Y102.236170 Z-0.200000 I7.176648 J-20.799759
G01 X64.416341 Y102.282230 Z-0.200000
G01 X73.409452 Y97.894181 Z-0.200000
G02 X82.395557 Y93.492084 Z-0.200000 I-1398.759375 J-2866.693185
G02 X84.380569 Y92.498314 Z-0.200000 I-69.280226 J-140.863656
G02 X89.493639 Y88.819258 Z-0.200000 I-9.412902 J-18.474388
G02 X95.406120 Y81.673494 Z-0.200000 I-31.490700 J-32.074643
G03 X100.285190 Y75.228772 Z-0.200000 I55.968078 J37.302195
G03 X103.279310 Y72.478944 Z-0.200000 I12.921784 J11.064772
G01 X104.970770 Y71.263394 Z-0.200000
G01 X106.726670 Y72.945664 Z-0.200000
G03 X107.942726 Y74.858344 Z-0.200000 I-3.291541 J3.435632
G03 X108.482580 Y78.142774 Z-0.200000 I-9.721175 J3.284430
G03 X107.266155 Y82.865357 Z-0.200000 I-9.775560 J0.000000
G03 X101.605350 Y90.606963 Z-0.200000 I-33.101961 J-18.264316
G02 X97.132803 Y96.119040 Z-0.200000 I33.535718 J31.781742
G02 X95.374079 Y99.622677 Z-0.200000 I11.593014 J8.012589
G02 X94.460576 Y110.527438 Z-0.200000 I21.622307 J7.301965
G02 X98.163726 Y117.072166 Z-0.200000 I10.641716 J-1.701289
G02 X103.805104 Y120.250864 Z-0.200000 I11.248875 J-13.368528
G02 X111.270590 Y121.513797 Z-0.200000 I7.666933 J-22.624437
G03 X116.550309 Y122.118122 Z-0.200000 I-0.212719 J25.223865
G03 X118.660960 Y123.162534 Z-0.200000 I-1.078556 J4.834567
G02 X124.090617 Y123.730669 Z-0.200000 I3.134311 J-3.724915
G02 X129.420180 Y117.409947 Z-0.200000 I-5.264405 J-9.846163
G03 X131.151668 Y113.599326 Z-0.200000 I18.902476 J6.290307
G03 X133.471620 Y110.522734 Z-0.200000 I14.552772 J8.560748
G02 X136.071022 Y107.594821 Z-0.200000 I-41.212413 J-39.206228
G02 X137.316460 Y105.879475 Z-0.200000 I-12.842154 J-10.633928
G02 X138.667503 Y101.479034 Z-0.200000 I-7.384108 J-4.674725
G02 X137.533650 Y98.962635 Z-0.200000 I-3.140443 J-0.098610
G03 X136.980618 Y98.066022 Z-0.200000 I1.052256 J-1.267894
G03 X136.972130 Y96.534822 Z-0.200000 I3.391571 J-0.784425
G02 X135.870029 Y91.708346 Z-0.200000 I-5.667788 J-1.244858
G02 X130.665580 Y88.495524 Z-0.200000 I-6.968527 J5.466560
G03 X126.639171 Y86.537945 Z-0.200000 I1.788074 J-8.797378
G03 X123.962370 Y82.797154 Z-0.200000 I6.137836 J-7.220172
G03 X121.546525 Y74.444690 Z-0.200000 I42.899376 J-16.933715
G03 X121.010470 Y67.209104 Z-0.200000 I31.554336 J-5.975380
G03 X121.086771 Y66.314024 Z-0.200000 I9.794802 J0.384164
G03 X121.424530 Y64.063134 Z-0.200000 I62.454468 J8.220867
G02 X121.618766 Y61.823772 Z-0.200000 I-13.783207 J-2.323619
G02 X121.446630 Y60.395484 Z-0.200000 I-5.725282 J-0.034512
G02 X119.692445 Y57.310773 Z-0.200000 I-6.424989 J1.612570
G02 X115.608670 Y54.590414 Z-0.200000 I-8.930878 J8.981504
G03 X114.348438 Y53.558091 Z-0.200000 I1.077039 J-2.600211
G03 X113.869600 Y51.997964 Z-0.200000 I2.345567 J-1.573453
G02 X113.658422 Y50.171329 Z-0.200000 I-8.355831 J0.040496
G02 X113.095720 Y48.623330 Z-0.200000 I-6.526843 J1.496254
G03 X112.902530 Y47.147762 Z-0.200000 I1.977480 J-1.009334
G03 X113.997140 Y44.426550 Z-0.200000 I8.432373 J1.811170
G02 X115.355232 Y41.618633 Z-0.200000 I-12.927314 J-7.984884
G02 X116.061220 Y38.730910 Z-0.200000 I-12.976654 J-4.702681
G03 X116.788534 Y35.877486 Z-0.200000 I12.428965 J1.648635
G03 X117.866580 Y34.038470 Z-0.200000 I6.132340 J2.359338
G02 X118.517590 Y31.866109 Z-0.200000 I-2.229360 J-1.851818
G02 X117.390220 Y29.757890 Z-0.200000 I-3.201071 J0.356232
G02 X107.736751 Y24.217263 Z-0.200000 I-20.184978 J23.988452
G02 X100.586400 Y23.764830 Z-0.200000 I-4.363662 J12.235180
G03 X98.881155 Y23.837278 Z-0.200000 I-1.059010 J-4.821651
G03 X98.303201 Y23.463350 Z-0.200000 I0.105119 J-0.796090
G02 X94.671004 Y21.279750 Z-0.200000 I-3.934231 J2.431498
G02 X81.086114 Y22.336600 Z-0.200000 I-3.122156 J47.706803
G01 X81.086114 Y22.336580 Z-0.200000
G00 Z3.000000

(End cutting path id: path1)


(Start cutting path id: path1)
(Change tool to Cylindrical cutter)

G00 Z3.000000
G00 X86.009222 Y25.883640

G01 Z-0.200000 F100.0(Penetrate)
G03 X86.225810 Y27.670173 Z-0.200000 I-9.210980 J2.023074 F400.000000
G03 X86.064192 Y28.074610 Z-0.200000 I-0.552178 J0.013854
G03 X85.480322 Y28.399094 Z-0.200000 I-0.860098 J-0.860098
G03 X81.787207 Y29.154386 Z-0.200000 I-15.645957 J-67.096610
G03 X78.044059 Y29.704616 Z-0.200000 I-11.549180 J-65.560454
G03 X77.628882 Y29.560580 Z-0.200000 I-0.059056 J-0.500156
G03 X77.468009 Y27.330824 Z-0.200000 I1.207821 J-1.207824
G03 X81.288941 Y24.658590 Z-0.200000 I5.953931 J4.445489
G03 X84.767177 Y24.593839 Z-0.200000 I1.854953 J6.189970
G03 X86.009218 Y25.883640 Z-0.200000 I-0.430054 J1.657055
G01 X86.009222 Y25.883640 Z-0.200000
G00 Z3.000000

(End cutting path id: path1)


(Start cutting path id: path1)
(Change tool to Cylindrical cutter)

G00 Z3.000000
G00 X96.307467 Y24.857080

G01 Z-0.200000 F100.0(Penetrate)
G03 X96.180086 Y26.785350 Z-0.200000 I-0.908331 J0.908338 F400.000000
G03 X91.890704 Y28.238930 Z-0.200000 I-4.289382 J-5.601996
G03 X90.505905 Y27.629844 Z-0.200000 I0.000000 J-1.878762
G03 X89.896820 Y26.064260 Z-0.200000 I1.707537 J-1.565584
G01 X89.896820 Y23.889590 Z-0.200000
G01 X92.907706 Y24.178890 Z-0.200000
G03 X95.850481 Y24.612656 Z-0.200000 I-2.815183 J29.298035
G03 X96.307467 Y24.857080 Z-0.200000 I-0.174789 J0.876204
G01 X96.307467 Y24.857080 Z-0.200000
G00 Z3.000000

(End cutting path id: path1)


(Start cutting path id: path1)
(Change tool to Cylindrical cutter)

G00 Z3.000000
G00 X106.170280 Y26.536870

G01 Z-0.200000 F100.0(Penetrate)
G03 X107.537889 Y27.499611 Z-0.200000 I-0.757741 J2.529138 F400.000000
G03 X107.495880 Y28.335490 Z-0.200000 I-0.532217 J0.392248
G03 X105.711924 Y29.198497 Z-0.200000 I-1.957868 J-1.771842
G03 X100.954040 Y28.767290 Z-0.200000 I-1.010704 J-15.312583
G03 X99.118117 Y27.509760 Z-0.200000 I0.783989 J-3.113517
G03 X99.339586 Y26.488330 Z-0.200000 I0.577932 J-0.409416
G03 X101.687177 Y25.863433 Z-0.200000 I2.314922 J3.974495
G03 X106.170280 Y26.536830 Z-0.200000 I-0.113768 J16.017102
G01 X106.170280 Y26.536870 Z-0.200000
G00 Z3.000000

(End cutting path id: path1)


(Start cutting path id: path1)
(Change tool to Cylindrical cutter)

G00 Z3.000000
G00 X103.686250 Y31.872170

G01 Z-0.200000 F100.0(Penetrate)
G03 X107.511663 Y32.735591 Z-0.200000 I-4.975309 J30.949262 F400.000000
G03 X110.730850 Y33.932860 Z-0.200000 I-6.750536 J23.077146
G03 X113.254908 Y35.765255 Z-0.200000 I-3.248497 J7.129283
G03 X113.865280 Y37.348760 Z-0.200000 I-1.708920 J1.568102
G03 X112.928106 Y41.908709 Z-0.200000 I-11.948311 J-0.079372
G03 X110.655780 Y44.966360 Z-0.200000 I-7.373992 J-3.106883
G03 X109.549711 Y45.571926 Z-0.200000 I-2.123877 J-2.566368
G03 X107.712940 Y45.910660 Z-0.200000 I-2.232972 J-6.958919
G02 X105.787370 Y46.049596 Z-0.200000 I2.945945 J54.242205
G02 X101.172620 Y46.499600 Z-0.200000 I28.064524 J311.685917
G01 X96.560594 Y46.983840 Z-0.200000
G01 X96.376295 Y39.109190 Z-0.200000
G01 X96.191997 Y31.234530 Z-0.200000
G01 X97.990619 Y31.240530 Z-0.200000
G03 X99.781405 Y31.342335 Z-0.200000 I-0.050620 J16.691664
G03 X103.686250 Y31.872590 Z-0.200000 I-8.900054 J80.183670
G01 X103.686250 Y31.872170 Z-0.200000
G00 Z3.000000

(End cutting path id: path1)


(Start cutting path id: path1)
(Change tool to Cylindrical cutter)

G00 Z3.000000
G00 X94.093605 Y38.730890

G01 Z-0.200000 F100.0(Penetrate)
G01 X94.093605 Y46.225150 Z-0.200000 F400.000000
G01 X92.444868 Y46.223150 Z-0.200000
G03 X90.076620 Y45.938264 Z-0.200000 I0.007533 J-10.048645
G03 X78.355662 Y42.795280 Z-0.200000 I61.574611 J-253.053492
G03 X77.762474 Y42.146092 Z-0.200000 I0.238629 J-0.813647
G03 X77.306466 Y37.488560 Z-0.200000 I23.557301 J-4.657532
G01 X77.306466 Y32.489560 Z-0.200000
G01 X79.254973 Y32.166530 Z-0.200000
G03 X83.252749 Y31.682432 Z-0.200000 I7.523793 J45.383716
G03 X90.046705 Y31.336930 Z-0.200000 I10.062333 J130.894788
G01 X94.093605 Y31.236140 Z-0.200000
G01 X94.093605 Y38.730890 Z-0.200000
G00 Z3.000000

(End cutting path id: path1)


(Start cutting path id: path1)
(Change tool to Cylindrical cutter)

G00 Z3.000000
G00 X95.142801 Y56.852074

G01 Z-0.200000 F100.0(Penetrate)
G03 X99.530774 Y58.340150 Z-0.200000 I-3.936589 J18.821609 F400.000000
G03 X100.089010 Y59.227524 Z-0.200000 I-0.426168 J0.887374
G02 X100.247830 Y60.543842 Z-0.200000 I5.534326 J-0.000000
G02 X101.523560 Y65.085864 Z-0.200000 I68.061256 J-16.666389
G01 X102.958100 Y69.603274 Z-0.200000
G01 X100.031240 Y72.053774 Z-0.200000
G01 X97.104384 Y74.504284 Z-0.200000
G01 X94.187074 Y73.535304 Z-0.200000
G03 X87.376367 Y70.024640 Z-0.200000 I7.809476 J-23.512162
G03 X85.093587 Y66.888384 Z-0.200000 I3.747087 J-5.126293
G03 X85.117468 Y57.497735 Z-0.200000 I14.118292 J-4.659452
G03 X88.926922 Y55.468724 Z-0.200000 I2.977413 J0.999455
G02 X90.204190 Y55.786103 Z-0.200000 I7.096825 J-25.831849
G02 X95.142801 Y56.852074 Z-0.200000 I85.749075 J-385.299480
G01 X95.142801 Y56.852074 Z-0.200000
G00 Z3.000000

(End cutting path id: path1)


(Start cutting path id: path1)
(Change tool to Cylindrical cutter)

G00 Z3.000000
G00 X108.774450 Y60.068184

G01 Z-0.200000 F100.0(Penetrate)
G03 X110.927845 Y63.342312 Z-0.200000 I-8.445504 J7.899819 F400.000000
G03 X111.264710 Y65.774144 Z-0.200000 I-4.159834 J1.815482
G03 X110.710371 Y68.368505 Z-0.200000 I-17.705314 J-2.426708
G03 X109.948260 Y70.270924 Z-0.200000 I-10.235749 J-2.996588
G03 X108.839530 Y71.249984 Z-0.200000 I-1.815825 J-0.939002
G03 X107.825070 Y71.053634 Z-0.200000 I-0.345064 J-0.936019
G03 X104.783435 Y66.887406 Z-0.200000 I8.517553 J-9.411819
G03 X102.747500 Y59.864714 Z-0.200000 I23.225053 J-10.539594
G01 X102.351020 Y57.016894 Z-0.200000
G01 X104.135680 Y57.016894 Z-0.200000
G03 X105.715139 Y57.489794 Z-0.200000 I0.000000 J2.874102
G03 X108.774450 Y60.068184 Z-0.200000 I-9.300887 J14.139850
G01 X108.774450 Y60.068184 Z-0.200000
G00 Z3.000000

(End cutting path id: path1)


(Start cutting path id: path1)
(Change tool to Cylindrical cutter)

G00 Z3.000000
G00 X114.853340 Y56.793174

G01 Z-0.200000 F100.0(Penetrate)
G03 X118.312143 Y59.499483 Z-0.200000 I-4.296967 J9.055167 F400.000000
G03 X119.274310 Y62.193844 Z-0.200000 I-3.291434 J2.694361
G03 X118.687428 Y62.830275 Z-0.200000 I-0.638522 J0.000000
G03 X116.576380 Y62.412754 Z-0.200000 I-0.319073 J-3.932367
G02 X114.194961 Y61.336444 Z-0.200000 I-12.634046 J24.781113
G02 X113.552250 Y61.213674 Z-0.200000 I-0.642711 J1.620936
G03 X112.708479 Y60.864756 Z-0.200000 I0.000000 J-1.194684
G03 X110.961189 Y58.842009 Z-0.200000 I12.747214 J-12.777351
G03 X109.654194 Y56.701543 Z-0.200000 I11.184539 J-8.298682
G03 X109.840930 Y56.211744 Z-0.200000 I0.320845 J-0.158174
G03 X111.869348 Y55.937458 Z-0.200000 I1.551557 J3.836690
G03 X114.853340 Y56.793174 Z-0.200000 I-1.096785 J9.455272
G01 X114.853340 Y56.793174 Z-0.200000
G00 Z3.000000

(End cutting path id: path1)


(Start cutting path id: path1)
(Change tool to Cylindrical cutter)

G00 Z3.000000
G00 X116.309820 Y65.428234

G01 Z-0.200000 F100.0(Penetrate)
G03 X117.945310 Y67.290518 Z-0.200000 I-1.665467 J3.111942 F400.000000
G03 X120.134830 Y75.531974 Z-0.200000 I-39.074029 J14.792430
G02 X121.312603 Y81.700812 Z-0.200000 I99.395359 J-15.780004
G02 X121.943570 Y83.625774 Z-0.200000 I10.218481 J-2.283541
G02 X125.303845 Y88.290634 Z-0.200000 I12.590496 J-5.526714
G02 X129.679340 Y90.631822 Z-0.200000 I6.877015 J-7.593275
G03 X132.988500 Y92.280786 Z-0.200000 I-2.109866 J8.379014
G03 X134.489950 Y94.505321 Z-0.200000 I-2.855427 J3.546240
G03 X134.102194 Y95.159492 Z-0.200000 I-0.493251 J0.149634
G03 X128.715340 Y95.712745 Z-0.200000 I-5.349438 J-25.584145
G02 X118.722815 Y96.737034 Z-0.200000 I-0.069547 J48.575059
G02 X117.070980 Y98.142709 Z-0.200000 I0.462663 J2.217073
G02 X117.546445 Y98.954657 Z-0.200000 I0.562439 J0.215831
G02 X121.324420 Y98.763286 Z-0.200000 I1.405770 J-9.635164
G03 X132.458153 Y98.230112 Z-0.200000 I6.893914 J27.444815
G03 X136.136250 Y101.007891 Z-0.200000 I-0.724963 J4.783935
G03 X136.063455 Y103.352374 Z-0.200000 I-2.410956 J1.098512
G03 X132.018020 Y108.736074 Z-0.200000 I-19.272464 J-10.270002
G01 X129.697700 Y110.993149 Z-0.200000
G01 X128.929330 Y107.995159 Z-0.200000
G02 X126.165342 Y103.358789 Z-0.200000 I-9.245144 J2.369459
G02 X123.097329 Y102.134069 Z-0.200000 I-3.128359 J3.381611
G02 X119.834121 Y103.211351 Z-0.200000 I-0.069063 J5.271753
G02 X116.167110 Y107.827966 Z-0.200000 I7.255554 J9.527814
G03 X114.657411 Y109.810280 Z-0.200000 I-5.020206 J-2.257272
G03 X113.100960 Y110.366833 Z-0.200000 I-1.544871 J-1.865717
G03 X110.718418 Y109.696522 Z-0.200000 I0.022220 J-4.648370
G03 X109.019380 Y107.899488 Z-0.200000 I2.400917 J-3.971700
G02 X107.969597 Y106.886536 Z-0.200000 I-2.076199 J1.101238
G02 X106.825120 Y106.834198 Z-0.200000 I-0.633068 J1.303980
G02 X104.989880 Y108.751808 Z-0.200000 I1.083733 J2.874191
G02 X104.882260 Y112.762766 Z-0.200000 I6.670176 J2.185893
G02 X106.787716 Y115.317345 Z-0.200000 I4.170835 J-1.123091
G02 X111.489040 Y116.832427 Z-0.200000 I5.441823 J-8.834383
G03 X115.221157 Y117.556537 Z-0.200000 I-1.131216 J15.810234
G03 X115.677070 Y118.182528 Z-0.200000 I-0.201802 J0.625991
G03 X114.384586 Y119.644888 Z-0.200000 I-1.473524 J0.000000
G03 X107.527840 Y119.191405 Z-0.200000 I-2.244375 J-18.128991
G03 X99.286059 Y114.152871 Z-0.200000 I4.215932 J-16.156224
G03 X96.491768 Y106.825144 Z-0.200000 I8.210943 J-7.327727
G03 X98.134832 Y99.646668 Z-0.200000 I16.502762 J0.000000
G03 X104.102000 Y91.071697 Z-0.200000 I29.904855 J14.446544
G02 X108.848544 Y85.680048 Z-0.200000 I-58.803864 J-56.553180
G02 X109.999120 Y83.746584 Z-0.200000 I-6.234625 J-5.019212
G02 X110.601313 Y81.580539 Z-0.200000 I-8.345129 J-3.486803
G02 X110.880740 Y77.774134 Z-0.200000 I-25.786053 J-3.806405
G03 X111.316485 Y74.009563 Z-0.200000 I16.479686 J0.000000
G03 X112.678890 Y70.110734 Z-0.200000 I19.054749 J4.471031
G02 X114.340389 Y66.279042 Z-0.200000 I-57.686173 J-27.289956
G02 X114.477510 Y65.560344 Z-0.200000 I-1.821377 J-0.719933
G03 X114.883228 Y65.124598 Z-0.200000 I0.437156 J0.000278
G03 X116.309820 Y65.428234 Z-0.200000 I0.188668 J2.616708
G01 X116.309820 Y65.428234 Z-0.200000
G00 Z3.000000

(End cutting path id: path1)


(Start cutting path id: path1)
(Change tool to Cylindrical cutter)

G00 Z3.000000
G00 X91.545557 Y78.945514

G01 Z-0.200000 F100.0(Penetrate)
G03 X93.299080 Y79.869432 Z-0.200000 I-3.796378 J9.331204 F400.000000
G03 X93.494064 Y80.231784 Z-0.200000 I-0.239199 J0.362352
G03 X92.899882 Y81.871783 Z-0.200000 I-2.560369 J-0.000000
G03 X87.853742 Y86.993924 Z-0.200000 I-33.408361 J-27.865956
G03 X82.134260 Y91.365985 Z-0.200000 I-40.849778 J-47.512116
G03 X80.773810 Y91.787685 Z-0.200000 I-1.375100 J-2.030895
G03 X80.400095 Y91.654003 Z-0.200000 I-0.003434 J-0.579612
G03 X78.225762 Y89.671875 Z-0.200000 I20.344747 J-24.501208
G03 X76.383672 Y85.189275 Z-0.200000 I4.447444 J-4.447440
G03 X78.275642 Y80.749074 Z-0.200000 I6.238106 J0.034873
G03 X83.952332 Y77.986350 Z-0.200000 I7.036969 J7.245738
G03 X91.545554 Y78.945514 Z-0.200000 I1.999159 J14.709116
G01 X91.545557 Y78.945514 Z-0.200000
G00 Z3.000000

(End cutting path id: path1)


(Start cutting path id: path1)
(Change tool to Cylindrical cutter)

G00 Z3.000000
G00 X71.358439 Y69.931514

G01 Z-0.200000 F100.0(Penetrate)
G02 X73.136514 Y70.635878 Z-0.200000 I4.396322 J-8.501497 F400.000000
G02 X73.605569 Y70.570614 Z-0.200000 I0.160532 J-0.564437
G03 X74.066239 Y70.480087 Z-0.200000 I0.350759 J0.567547
G03 X74.868190 Y70.781534 Z-0.200000 I-0.365934 J2.190964
G03 X75.235012 Y72.313456 Z-0.200000 I-0.587477 J0.950552
G03 X69.672484 Y79.310104 Z-0.200000 I-30.726663 J-18.719040
G03 X64.146445 Y84.039747 Z-0.200000 I-38.187010 J-39.023998
G03 X61.828023 Y85.165784 Z-0.200000 I-4.100902 J-5.493694
G03 X58.029529 Y84.989909 Z-0.200000 I-1.624061 J-6.031303
G03 X55.934045 Y82.977034 Z-0.200000 I1.269623 J-3.418908
G03 X56.199185 Y75.917711 Z-0.200000 I7.761861 J-3.243114
G03 X62.617719 Y69.847344 Z-0.200000 I11.724353 J5.968287
G03 X67.214679 Y68.902355 Z-0.200000 I4.489740 J10.187037
G03 X71.358439 Y69.931544 Z-0.200000 I-0.088744 J9.213783
G01 X71.358439 Y69.931514 Z-0.200000
G00 Z3.000000

(End cutting path id: path1)


(Start cutting path id: path1)
(Change tool to Cylindrical cutter)

G00 Z3.000000
G00 X61.828460 Y67.575734

G01 Z-0.200000 F100.0(Penetrate)
G02 X56.799681 Y71.113816 Z-0.200000 I6.152554 J14.087619 F400.000000
G02 X53.898616 Y75.980484 Z-0.200000 I9.493782 J8.957340
G02 X53.306138 Y82.261751 Z-0.200000 I13.442992 J4.436581
G02 X55.239603 Y86.183504 Z-0.200000 I6.741206 J-0.885999
G02 X58.621805 Y87.747775 Z-0.200000 I3.819236 J-3.819230
G02 X63.991605 Y86.894004 Z-0.200000 I0.930450 J-11.461513
G02 X66.024594 Y85.632698 Z-0.200000 I-2.917852 J-6.972084
G02 X71.596251 Y80.492593 Z-0.200000 I-80.383279 J-92.721842
G02 X76.877707 Y74.961029 Z-0.200000 I-82.429646 J-83.989727
G02 X77.667996 Y73.471644 Z-0.200000 I-2.622651 J-2.345979
G02 X77.414221 Y70.136794 Z-0.200000 I-5.127406 J-1.286897
G02 X75.648598 Y68.665964 Z-0.200000 I-2.300858 J0.966846
G03 X74.029061 Y68.238125 Z-0.200000 I4.262587 J-19.414759
G03 X71.748582 Y67.457754 Z-0.200000 I12.180278 J-39.316744
G02 X66.585739 Y66.552654 Z-0.200000 I-4.993807 J13.308095
G02 X61.828460 Y67.575734 Z-0.200000 I0.145683 J12.249526
G01 X61.828460 Y67.575734 Z-0.200000
G00 Z3.000000

(End cutting path id: path1)


(Start cutting path id: path1)
(Change tool to Cylindrical cutter)

G00 Z3.000000
G00 X56.778148 Y51.907634

G01 Z-0.200000 F100.0(Penetrate)
G02 X60.723849 Y60.252938 Z-0.200000 I11.892917 J-0.517605 F400.000000
G02 X70.111978 Y63.863854 Z-0.200000 I9.435995 J-10.523228
G02 X74.491748 Y63.432838 Z-0.200000 I0.073611 J-21.720024
G02 X77.148340 Y62.440614 Z-0.200000 I-1.788050 J-8.839855
G02 X80.889522 Y59.301043 Z-0.200000 I-6.618125 J-11.685127
G02 X82.982525 Y55.368154 Z-0.200000 I-8.619944 J-7.110728
G03 X83.593038 Y54.301009 Z-0.200000 I2.570974 J0.762643
G03 X84.241585 Y54.019184 Z-0.200000 I0.648547 J0.605319
G03 X84.659729 Y54.491386 Z-0.200000 I0.000000 J0.421238
G03 X83.868310 Y57.081784 Z-0.200000 I-7.711324 J-0.939869
G02 X83.705906 Y67.603493 Z-0.200000 I10.636385 J5.426282
G02 X92.488155 Y75.349904 Z-0.200000 I13.373545 J-6.310330
G03 X95.523788 Y76.758419 Z-0.200000 I-4.386004 J13.428174
G03 X95.652667 Y77.303854 Z-0.200000 I-0.208164 J0.337130
G03 X95.169981 Y77.522996 Z-0.200000 I-0.404624 J-0.250076
G03 X92.288727 Y76.744204 Z-0.200000 I2.474541 J-14.874134
G02 X83.334980 Y75.698893 Z-0.200000 I-6.550542 J17.239630
G02 X76.808028 Y78.778854 Z-0.200000 I1.540394 J11.720184
G02 X74.089725 Y84.858819 Z-0.200000 I5.846329 J6.261494
G02 X76.542878 Y91.288719 Z-0.200000 I9.145153 J0.193834
G01 X78.030941 Y92.885578 Z-0.200000
G01 X76.428934 Y93.724955 Z-0.200000
G03 X74.820564 Y94.012756 Z-0.200000 I-1.260376 J-2.405513
G03 X71.965564 Y93.148258 Z-0.200000 I1.159909 J-8.977153
G02 X65.452246 Y90.763122 Z-0.200000 I-14.202155 J28.697344
G02 X59.233513 Y89.998746 Z-0.200000 I-6.273665 J25.361585
G02 X52.365711 Y90.918998 Z-0.200000 I-0.053978 J25.684353
G02 X46.301995 Y93.556851 Z-0.200000 I6.205438 J22.552988
G03 X44.421869 Y94.291108 Z-0.200000 I-2.959518 J-4.803852
G03 X44.157107 Y94.024106 Z-0.200000 I-0.043247 J-0.221888
G03 X44.521458 Y93.211104 Z-0.200000 I1.996529 J0.406609
G03 X46.957059 Y90.340364 Z-0.200000 I24.394750 J18.228483
G02 X50.646589 Y84.519284 Z-0.200000 I-12.475730 J-11.987187
G02 X50.855751 Y80.119434 Z-0.200000 I-6.603397 J-2.518813
G02 X48.583473 Y76.455073 Z-0.200000 I-7.374369 J2.036159
G02 X43.714562 Y73.727914 Z-0.200000 I-8.547125 J9.549625
G02 X41.511173 Y73.762144 Z-0.200000 I-1.047638 J3.496725
G02 X39.524541 Y75.126504 Z-0.200000 I1.382353 J4.141369
G03 X33.179714 Y80.961211 Z-0.200000 I-24.196172 J-19.944482
G03 X31.338280 Y80.795274 Z-0.200000 I-0.821314 J-1.186062
G03 X31.318922 Y80.432604 Z-0.200000 I0.192109 J-0.192106
G03 X35.509969 Y75.623214 Z-0.200000 I65.240577 J52.621803
G02 X39.697661 Y70.628460 Z-0.200000 I-41.568729 J-39.104865
G02 X40.431822 Y69.020874 Z-0.200000 I-3.363852 J-2.507656
G02 X40.314920 Y63.508905 Z-0.200000 I-11.448109 J-2.514425
G02 X37.651279 Y58.509964 Z-0.200000 I-11.960833 J3.164104
G01 X35.867149 Y56.477944 Z-0.200000
G01 X38.208970 Y55.283234 Z-0.200000
G01 X40.550792 Y54.088534 Z-0.200000
G01 X41.228382 Y59.602204 Z-0.200000
G02 X45.116966 Y71.099553 Z-0.200000 I29.751881 J-3.656288
G02 X49.104060 Y73.043934 Z-0.200000 I3.454798 J-2.024210
G02 X56.884706 Y69.553513 Z-0.200000 I-1.993228 J-14.860484
G02 X59.318005 Y64.263864 Z-0.200000 I-4.556371 J-5.300480
G02 X59.036823 Y62.900372 Z-0.200000 I-3.421449 J-0.005161
G02 X57.393656 Y59.815174 Z-0.200000 I-19.792964 J8.561501
G03 X55.912726 Y56.666618 Z-0.200000 I11.220255 J-7.200029
G03 X55.225420 Y53.017854 Z-0.200000 I14.462989 J-4.613461
G03 X55.383654 Y49.598077 Z-0.200000 I15.585471 J-0.992403
G03 X55.822537 Y49.222850 Z-0.200000 I0.438883 J0.069055
G03 X56.323148 Y49.576042 Z-0.200000 I0.000000 J0.531377
G03 X56.778148 Y51.907634 Z-0.200000 I-7.526548 J2.678963
G01 X56.778148 Y51.907634 Z-0.200000
G00 Z3.000000

(End cutting path id: path1)


(Start cutting path id: path1)
(Change tool to Cylindrical cutter)

G00 Z3.000000
G00 X52.725298 Y52.425054

G01 Z-0.200000 F100.0(Penetrate)
G02 X53.528396 Y57.560643 Z-0.200000 I16.821874 J0.000000 F400.000000
G02 X55.654930 Y61.563084 Z-0.200000 I12.178497 J-3.904402
G03 X56.503800 Y64.543350 Z-0.200000 I-3.210670 J2.525521
G03 X54.971342 Y67.665514 Z-0.200000 I-5.113793 J-0.572842
G03 X49.674201 Y71.231253 Z-0.200000 I-12.598387 J-12.998243
G03 X47.261330 Y71.064004 Z-0.200000 I-1.047509 J-2.376433
G03 X44.705508 Y67.635413 Z-0.200000 I3.056311 J-4.945215
G03 X43.132647 Y55.786164 Z-0.200000 I43.847109 J-11.849249
G03 X44.121051 Y53.585270 Z-0.200000 I2.944583 J0.000000
G03 X48.228743 Y51.256694 Z-0.200000 I7.492672 J8.429995
G03 X51.752736 Y51.167494 Z-0.200000 I1.917380 J6.094037
G03 X52.725298 Y52.425054 Z-0.200000 I-0.326757 J1.257560
G01 X52.725298 Y52.425054 Z-0.200000
G00 Z3.000000

(End cutting path id: path1)


(Start cutting path id: path1)
(Change tool to Cylindrical cutter)

G00 Z3.000000
G00 X36.788987 Y61.119924

G01 Z-0.200000 F100.0(Penetrate)
G03 X37.477109 Y62.885605 Z-0.200000 I-7.981991 J4.127673 F400.000000
G03 X38.066523 Y65.809344 Z-0.200000 I-21.476923 J5.850942
G03 X37.729226 Y68.581908 Z-0.200000 I-5.531820 J0.733823
G03 X35.500173 Y72.348164 Z-0.200000 I-12.754004 J-5.005678
G03 X30.803295 Y77.087159 Z-0.200000 I-29.790246 J-24.828427
G03 X29.964591 Y77.046114 Z-0.200000 I-0.397438 J-0.468300
G03 X27.793037 Y73.458424 Z-0.200000 I6.752404 J-6.538132
G03 X26.966294 Y67.977424 Z-0.200000 I15.590259 J-5.154456
G03 X27.547731 Y66.000720 Z-0.200000 I3.915531 J0.077867
G03 X30.757017 Y61.825954 Z-0.200000 I21.776066 J13.419084
G03 X34.546040 Y59.927838 Z-0.200000 I4.511591 J4.275160
G03 X36.788987 Y61.119924 Z-0.200000 I0.259579 J2.217723
G01 X36.788987 Y61.119924 Z-0.200000
G00 Z3.000000

(End cutting path id: path1)


(Start cutting path id: path1)
(Change tool to Cylindrical cutter)

G00 Z3.000000
G00 X21.475395 Y58.438264

G01 Z-0.200000 F100.0(Penetrate)
G03 X20.560998 Y59.709633 Z-0.200000 I-3.659116 J-1.667207 F400.000000
G03 X19.787727 Y60.014594 Z-0.200000 I-0.773271 J-0.827886
G02 X18.874452 Y60.192695 Z-0.200000 I0.000000 J2.430612
G02 X17.485800 Y60.947904 Z-0.200000 I2.635739 J6.500817
G03 X16.978724 Y60.718984 Z-0.200000 I-0.185591 J-0.264968
G03 X17.329246 Y59.551744 Z-0.200000 I1.542682 J-0.172984
G03 X20.813797 Y56.525439 Z-0.200000 I11.086907 J9.246452
G03 X21.993909 Y56.662234 Z-0.200000 I0.503723 J0.813179
G03 X22.051622 Y56.887625 Z-0.200000 I-0.161416 J0.161416
G03 X21.475395 Y58.438264 Z-0.200000 I-11.077679 J-3.234149
G01 X21.475395 Y58.438264 Z-0.200000
G00 Z3.000000

(End cutting path id: path1)


(Start cutting path id: path1)
(Change tool to Cylindrical cutter)

G00 Z3.000000
G00 X26.935868 Y31.972240

G01 Z-0.200000 F100.0(Penetrate)
G03 X26.788116 Y32.325387 Z-0.200000 I-0.471913 J0.010040 F400.000000
G03 X25.410239 Y33.413720 Z-0.200000 I-6.822703 J-7.221446
G03 X23.931681 Y33.873478 Z-0.200000 I-1.543051 J-2.355010
G03 X22.926707 Y33.470620 Z-0.200000 I-0.031534 J-1.376274
G03 X22.784605 Y32.618759 Z-0.200000 I0.525434 J-0.525433
G03 X23.988530 Y31.299220 Z-0.200000 I2.855576 J1.396390
G03 X26.107266 Y30.955245 Z-0.200000 I1.483265 J2.439034
G03 X26.935868 Y31.972220 Z-0.200000 I-0.237343 J1.039428
G01 X26.935868 Y31.972240 Z-0.200000
G00 Z3.000000

(End cutting path id: path1)


(Start cutting path id: path1)
(Change tool to Cylindrical cutter)

G00 Z3.000000
G00 X32.041145 Y29.188200

G01 Z-0.200000 F100.0(Penetrate)
G03 X31.664143 Y30.001514 Z-0.200000 I-1.065791 J-0.000000 F400.000000
G03 X30.468998 Y30.519640 Z-0.200000 I-1.454384 J-1.717318
G03 X28.933809 Y29.628357 Z-0.200000 I-0.170874 J-1.473462
G03 X29.503082 Y28.256050 Z-0.200000 I0.955654 J-0.407796
G03 X31.371525 Y28.228917 Z-0.200000 I0.969566 J2.420336
G03 X32.041145 Y29.188200 Z-0.200000 I-0.352314 J0.959283
G01 X32.041145 Y29.188200 Z-0.200000
G00 Z3.000000

(End cutting path id: path1)


(Start cutting path id: path1)
(Change tool to Cylindrical cutter)

G00 Z3.000000
G00 X39.576887 Y27.552420

G01 Z-0.200000 F100.0(Penetrate)
G01 X40.950291 Y28.664540 Z-0.200000 F400.000000
G01 X38.683813 Y29.089730 Z-0.200000
G03 X36.533563 Y29.103084 Z-0.200000 I-1.111977 J-5.927341
G03 X35.292574 Y28.497030 Z-0.200000 I0.428297 J-2.450591
G03 X34.471714 Y27.436055 Z-0.200000 I2.559658 J-2.828398
G03 X34.488829 Y26.959720 Z-0.200000 I0.426795 J-0.223140
G03 X36.200434 Y26.131594 Z-0.200000 I1.506668 J0.931173
G03 X39.576887 Y27.552420 Z-0.200000 I-0.760663 J6.529957
G01 X39.576887 Y27.552420 Z-0.200000
G00 Z3.000000

(End cutting path id: path1)


(Start cutting path id: path1)
(Change tool to Cylindrical cutter)

G00 Z3.000000
G00 X45.326194 Y35.283530

G01 Z-0.200000 F100.0(Penetrate)
G02 X47.518090 Y38.721312 Z-0.200000 I430.679316 J-272.179197 F400.000000
G02 X47.681652 Y38.945440 Z-0.200000 I1.984585 J-1.276550
G02 X47.905358 Y39.033981 Z-0.200000 I0.191997 J-0.158218
G02 X53.513729 Y38.196020 Z-0.200000 I-17.615197 J-137.083361
G03 X64.248701 Y37.235351 Z-0.200000 I11.390446 J66.823098
G03 X70.711519 Y38.029710 Z-0.200000 I0.239248 J24.741080
G03 X72.956641 Y39.125088 Z-0.200000 I-1.584215 J6.095585
G03 X73.584238 Y40.229740 Z-0.200000 I-0.990488 J1.293343
G01 X73.759025 Y41.728590 Z-0.200000
G01 X61.893195 Y41.774790 Z-0.200000
G02 X46.209760 Y43.292811 Z-0.200000 I0.331554 J85.201198
G02 X35.402311 Y46.844530 Z-0.200000 I8.347929 J43.620463
G03 X30.395240 Y49.124483 Z-0.200000 I-63.613560 J-133.065555
G03 X30.224192 Y49.086720 Z-0.200000 I-0.059405 J-0.137189
G03 X30.120749 Y48.900176 Z-0.200000 I0.363039 J-0.323266
G03 X28.798044 Y44.220800 Z-0.200000 I242.365709 J-71.035419
G02 X27.383226 Y39.570869 Z-0.200000 I-79.464080 J21.638051
G02 X26.647579 Y37.836050 Z-0.200000 I-11.731284 J3.951245
G03 X26.211743 Y36.241795 Z-0.200000 I3.514790 J-1.817572
G03 X26.517750 Y35.539280 Z-0.200000 I0.849200 J-0.048003
G03 X31.324599 Y33.019509 Z-0.200000 I8.317258 J10.021658
G03 X39.692735 Y31.851520 Z-0.200000 I8.508258 J30.396950
G01 X43.147541 Y31.836220 Z-0.200000
G01 X45.326194 Y35.283530 Z-0.200000
G00 Z3.000000

(End cutting path id: path1)


(Start cutting path id: path1)
(Change tool to Cylindrical cutter)

G00 Z3.000000
G00 X49.727595 Y28.174780

G01 Z-0.200000 F100.0(Penetrate)
G03 X48.811526 Y29.513062 Z-0.200000 I-1.435581 J0.000000 F400.000000
G03 X46.622093 Y29.380320 Z-0.200000 I-0.950318 J-2.448057
G03 X46.342553 Y28.468254 Z-0.200000 I0.319375 J-0.596757
G03 X47.629202 Y27.467360 Z-0.200000 I1.748857 J0.920714
G03 X49.272152 Y27.540612 Z-0.200000 I0.694393 J2.886932
G03 X49.727595 Y28.174780 Z-0.200000 I-0.213793 J0.634168
G01 X49.727595 Y28.174780 Z-0.200000
G00 Z3.000000

(End cutting path id: path1)


(Start cutting path id: path1)
(Change tool to Cylindrical cutter)

G00 Z3.000000
G00 X56.657608 Y27.920090

G01 Z-0.200000 F100.0(Penetrate)
G03 X56.645453 Y28.410715 Z-0.200000 I-0.182244 J0.240948 F400.000000
G03 X55.337490 Y28.819400 Z-0.200000 I-1.326037 J-1.946517
G03 X53.093116 Y28.487103 Z-0.200000 I-0.056504 J-7.363902
G03 X52.508488 Y27.939160 Z-0.200000 I0.272878 J-0.877003
G03 X53.288896 Y26.798186 Z-0.200000 I0.784269 J-0.300952
G03 X56.657608 Y27.920060 Z-0.200000 I0.025472 J5.542158
G01 X56.657608 Y27.920090 Z-0.200000
G00 Z3.000000

(End cutting path id: path1)


(Start cutting path id: path1)
(Change tool to Cylindrical cutter)

G00 Z3.000000
G00 X59.598968 Y32.787500

G01 Z-0.200000 F100.0(Penetrate)
G03 X60.458695 Y34.314665 Z-0.200000 I-10.898485 J7.140949 F400.000000
G03 X60.417347 Y34.501620 Z-0.200000 I-0.140352 J0.067009
G03 X60.192701 Y34.604552 Z-0.200000 I-0.305447 J-0.370023
G03 X54.429978 Y35.524550 Z-0.200000 I-45.088129 J-263.916482
G01 X48.640399 Y36.384250 Z-0.200000
G01 X47.626730 Y34.668240 Z-0.200000
G03 X46.861151 Y32.983643 Z-0.200000 I7.458348 J-4.405768
G03 X46.948078 Y32.617220 Z-0.200000 I0.340639 J-0.112712
G03 X48.124531 Y32.032711 Z-0.200000 I1.457654 J1.457657
G03 X56.403474 Y31.315240 Z-0.200000 I11.252567 J81.719774
G03 X58.341214 Y31.703698 Z-0.200000 I0.153637 J4.260851
G03 X59.598968 Y32.787500 Z-0.200000 I-1.259126 J2.732931
G01 X59.598968 Y32.787500 Z-0.200000
G00 Z3.000000

(End cutting path id: path1)


(Start cutting path id: path1)
(Change tool to Cylindrical cutter)

G00 Z3.000000
G00 X76.107385 Y45.338950

G01 Z-0.200000 F100.0(Penetrate)
G03 X80.003344 Y46.230983 Z-0.200000 I-376.004928 J1651.157022 F400.000000
G03 X85.700035 Y47.547220 Z-0.200000 I-815.626091 J3543.026564
G02 X91.442184 Y48.472175 Z-0.200000 I9.645351 J-41.592431
G02 X100.699510 Y48.924210 Z-0.200000 I9.911820 J-107.968960
G03 X109.943724 Y49.187881 Z-0.200000 I-1.242363 J205.738082
G03 X110.741810 Y49.436760 Z-0.200000 I-0.085680 J1.678810
G03 X111.221385 Y50.037505 Z-0.200000 I-0.599942 J0.970729
G03 X111.480280 Y51.591414 Z-0.200000 I-4.533898 J1.553909
G03 X110.608075 Y52.901740 Z-0.200000 I-1.420363 J0.000000
G03 X104.885330 Y54.350334 Z-0.200000 I-7.709774 J-18.429561
G03 X98.878376 Y54.134462 Z-0.200000 I-2.212081 J-22.129663
G03 X83.901413 Y50.716484 Z-0.200000 I24.786905 J-143.133925
G02 X62.312496 Y46.844920 Z-0.200000 I-30.121152 J105.835217
G02 X49.742798 Y48.059860 Z-0.200000 I-2.828415 J36.367525
G02 X30.963287 Y56.552610 Z-0.200000 I17.897436 J64.584915
G02 X24.534970 Y64.542494 Z-0.200000 I9.079623 J13.885990
G03 X23.127165 Y65.782119 Z-0.200000 I-1.878583 J-0.714238
G03 X21.952639 Y65.164704 Z-0.200000 I-0.235580 J-0.977724
G03 X21.844703 Y64.311969 Z-0.200000 I1.684574 J-0.646426
G03 X22.302931 Y62.121134 Z-0.200000 I12.155160 J1.398998
G03 X29.238026 Y53.245913 Z-0.200000 I15.062773 J4.622896
G03 X50.091330 Y45.388790 Z-0.200000 I31.814586 J52.836371
G03 X64.692731 Y44.066762 Z-0.200000 I14.760547 J81.730772
G03 X76.107385 Y45.338990 Z-0.200000 I0.097664 J50.967020
G01 X76.107385 Y45.338950 Z-0.200000
G00 Z3.000000

(End cutting path id: path1)


(Start cutting path id: path1)
(Change tool to Cylindrical cutter)

G00 Z3.000000
G00 X72.630516 Y51.095354

G01 Z-0.200000 F100.0(Penetrate)
G03 X75.746269 Y51.942948 Z-0.200000 I-5.902654 J27.848696 F400.000000
G03 X78.063088 Y52.909834 Z-0.200000 I-5.451651 J16.322237
G03 X79.449083 Y54.331904 Z-0.200000 I-1.383679 J2.735030
G03 X79.424033 Y55.780734 Z-0.200000 I-1.474812 J0.699133
G03 X74.223622 Y60.031001 Z-0.200000 I-7.511893 J-3.884558
G03 X64.853131 Y59.920994 Z-0.200000 I-4.499971 J-15.836798
G03 X61.354793 Y57.335335 Z-0.200000 I1.950606 J-6.298540
G03 X59.919786 Y52.680934 Z-0.200000 I6.830698 J-4.654401
G01 X59.919786 Y50.421934 Z-0.200000
G01 X64.686602 Y50.421934 Z-0.200000
G03 X69.432370 Y50.622728 Z-0.200000 I0.000000 J56.183492
G03 X72.630516 Y51.095354 Z-0.200000 I-2.198366 J25.932671
G01 X72.630516 Y51.095354 Z-0.200000
G00 Z3.000000

(End cutting path id: path1)


(Start cutting path id: path1)
(Change tool to Cylindrical cutter)

G00 Z3.000000
G00 X46.011109 Y77.276954

G01 Z-0.200000 F100.0(Penetrate)
G03 X48.450153 Y80.145911 Z-0.200000 I-3.636982 J5.563236 F400.000000
G03 X48.793997 Y83.552794 Z-0.200000 I-5.024192 J2.227866
G03 X48.149268 Y85.019889 Z-0.200000 I-3.981474 J-0.874483
G03 X45.569556 Y88.353978 Z-0.200000 I-37.023392 J-25.981356
G03 X42.657199 Y91.439611 Z-0.200000 I-31.458639 J-26.774840
G03 X41.782990 Y91.790252 Z-0.200000 I-0.874209 J-0.914455
G03 X39.573173 Y90.963228 Z-0.200000 I-0.000000 J-3.365840
G03 X34.659562 Y85.589934 Z-0.200000 I21.043682 J-24.176677
G01 X32.935008 Y83.209254 Z-0.200000
G01 X35.785550 Y81.270864 Z-0.200000
G02 X38.532461 Y79.210824 Z-0.200000 I-20.865174 J-30.683580
G02 X40.400525 Y77.463884 Z-0.200000 I-13.101385 J-15.882037
G03 X42.804581 Y76.379663 Z-0.200000 I2.519439 J2.379000
G03 X46.011109 Y77.276954 Z-0.200000 I0.183933 J5.520717
G01 X46.011109 Y77.276954 Z-0.200000
G00 Z3.000000

(End cutting path id: path1)


(Start cutting path id: path1)
(Change tool to Cylindrical cutter)

G00 Z3.000000
G00 X68.855116 Y94.236081

G01 Z-0.200000 F100.0(Penetrate)
G01 X72.094810 Y95.714138 Z-0.200000 F400.000000
G01 X68.015710 Y97.784581 Z-0.200000
G03 X59.551396 Y99.967376 Z-0.200000 I-9.175283 J-18.076762
G03 X51.566048 Y98.361850 Z-0.200000 I-0.617311 J-17.590686
G03 X47.515183 Y96.290152 Z-0.200000 I23.325886 J-50.606180
G03 X47.329432 Y95.972112 Z-0.200000 I0.179396 J-0.318040
G03 X47.894993 Y95.087814 Z-0.200000 I0.974114 J0.000000
G03 X54.224150 Y92.786694 Z-0.200000 I16.816640 J36.398998
G03 X55.440467 Y92.607394 Z-0.200000 I1.362570 J5.028052
G03 X60.519327 Y92.609888 Z-0.200000 I2.495794 J88.862460
G03 X65.520385 Y93.166604 Z-0.200000 I-0.894679 J30.778003
G03 X68.855116 Y94.236081 Z-0.200000 I-2.855647 J14.637919
G01 X68.855116 Y94.236081 Z-0.200000
G00 Z3.000000

(End cutting path id: path1)


(Start cutting path id: path1)
(Change tool to Cylindrical cutter)

G00 Z3.000000
G00 X71.910600 Y120.307850

G01 Z-0.200000 F100.0(Penetrate)
G02 X73.010247 Y124.864425 Z-0.200000 I9.990295 J-0.000000 F400.000000
G02 X74.809489 Y125.964072 Z-0.200000 I1.799242 J-0.922135
G02 X77.062270 Y125.120336 Z-0.200000 I-0.000000 J-3.429338
G02 X77.906007 Y123.266139 Z-0.200000 I-1.615523 J-1.854197
G02 X77.098701 Y121.375512 Z-0.200000 I-2.617480 J0.000000
G02 X75.088165 Y120.568206 Z-0.200000 I-2.010536 J2.099894
G03 X74.164809 Y120.112619 Z-0.200000 I0.000000 J-1.163493
G03 X73.709222 Y118.769584 Z-0.200000 I1.751785 J-1.343035
G02 X73.365716 Y117.314468 Z-0.200000 I-3.253738 J-0.000000
G02 X72.809911 Y116.970962 Z-0.200000 I-0.555805 J0.277902
G02 X72.300725 Y117.361087 Z-0.200000 I0.000000 J0.527354
G02 X71.910600 Y120.307850 Z-0.200000 I10.933948 J2.946763
G01 X71.910600 Y120.307850 Z-0.200000
G00 Z3.000000

(End cutting path id: path1)


(Start cutting path id: path1)
(Change tool to Cylindrical cutter)

G00 Z3.000000
G00 X67.376642 Y120.628725

G01 Z-0.200000 F100.0(Penetrate)
G02 X67.400838 Y121.051359 Z-0.200000 I0.313956 J0.194035 F400.000000
G02 X68.125471 Y121.577905 Z-0.200000 I1.297329 J-1.023492
G03 X69.558110 Y122.716481 Z-0.200000 I-1.015417 J2.748284
G03 X69.692594 Y123.961196 Z-0.200000 I-1.145808 J0.753421
G03 X68.513867 Y124.554006 Z-0.200000 I-0.915023 J-0.351127
G03 X65.056859 Y122.666130 Z-0.200000 I2.350250 J-8.412800
G02 X60.775556 Y120.774308 Z-0.200000 I-5.081566 J5.709549
G02 X58.646170 Y121.991220 Z-0.200000 I-0.219719 J2.087016
G02 X58.888018 Y124.724148 Z-0.200000 I2.530973 J1.153188
G02 X61.308586 Y125.849202 Z-0.200000 I2.166727 J-1.495272
G02 X62.799189 Y125.284774 Z-0.200000 I-0.292964 J-3.024179
G02 X63.217260 Y124.465221 Z-0.200000 I-0.594258 J-0.819553
G02 X62.823001 Y123.617634 Z-0.200000 I-1.108211 J0.000000
G02 X61.568523 Y123.076431 Z-0.200000 I-1.525075 J1.810532
G03 X60.148753 Y122.682591 Z-0.200000 I0.541883 J-4.709474
G03 X59.919786 Y122.327005 Z-0.200000 I0.161630 J-0.355586
G03 X60.882856 Y121.391622 Z-0.200000 I0.935781 J0.000000
G03 X62.642193 Y122.406425 Z-0.200000 I-0.062455 J2.140736
G02 X66.026121 Y125.715591 Z-0.200000 I8.366587 J-5.170836
G02 X68.968057 Y126.123361 Z-0.200000 I1.962068 J-3.339249
G02 X70.868827 Y124.457548 Z-0.200000 I-0.714638 J-2.732775
G02 X70.730590 Y121.802920 Z-0.200000 I-2.893124 J-1.180256
G02 X68.779257 Y120.132200 Z-0.200000 I-3.121010 J1.670314
G02 X67.376642 Y120.628722 Z-0.200000 I-0.392408 J1.120864
G01 X67.376642 Y120.628725 Z-0.200000
G00 Z3.000000

(End cutting path id: path1)


(Start cutting path id: path1)
(Change tool to Cylindrical cutter)

G00 Z3.000000
G00 X62.100749 Y124.347944

G01 Z-0.200000 F100.0(Penetrate)
G03 X62.061192 Y124.575860 Z-0.200000 I-0.100030 J0.100030 F400.000000
G03 X61.218791 Y124.764991 Z-0.200000 I-0.842401 J-1.781484
G03 X60.137895 Y124.546882 Z-0.200000 I-0.000000 J-2.787390
G03 X59.919786 Y124.218500 Z-0.200000 I0.138150 J-0.328382
G03 X60.530971 Y123.642514 Z-0.200000 I0.577000 J0.000000
G03 X62.100749 Y124.347944 Z-0.200000 I-0.143557 J2.418765
G01 X62.100749 Y124.347944 Z-0.200000
G00 Z3.000000

(End cutting path id: path1)


(Start cutting path id: path1)
(Change tool to Cylindrical cutter)

G00 Z3.000000
G00 X76.407155 Y123.266139

G01 Z-0.200000 F100.0(Penetrate)
G03 X76.047628 Y124.153147 Z-0.200000 I-1.273953 J0.000000 F400.000000
G03 X75.058188 Y124.656804 Z-0.200000 I-1.230486 J-1.193591
G03 X74.146404 Y124.344731 Z-0.200000 I-0.149357 J-1.051640
G03 X73.709222 Y123.266139 Z-0.200000 I1.111932 J-1.078592
G03 X74.146403 Y122.187548 Z-0.200000 I1.549114 J0.000000
G03 X75.058188 Y121.875474 Z-0.200000 I0.762428 J0.739566
G03 X76.047628 Y122.379132 Z-0.200000 I-0.241047 J1.697248
G03 X76.407155 Y123.266139 Z-0.200000 I-0.914426 J0.887007
G01 X76.407155 Y123.266139 Z-0.200000
G00 Z3.000000

(End cutting path id: path1)


(Start cutting path id: path1)
(Change tool to Cylindrical cutter)

G00 Z3.000000
G00 X79.824537 Y121.287655

G01 Z-0.200000 F100.0(Penetrate)
G02 X79.005022 Y123.266140 Z-0.200000 I1.978485 J1.978485 F400.000000
G02 X79.824537 Y125.244623 Z-0.200000 I2.797996 J-0.000000
G02 X82.102792 Y126.188308 Z-0.200000 I2.278255 J-2.278252
G02 X84.381046 Y125.244623 Z-0.200000 I-0.000000 J-3.221937
G02 X84.893770 Y124.439547 Z-0.200000 I-1.558098 J-1.558102
G02 X85.100495 Y123.266139 Z-0.200000 I-3.226872 J-1.173408
G02 X84.269175 Y121.399526 Z-0.200000 I-2.511271 J0.000000
G02 X82.102791 Y120.568206 Z-0.200000 I-2.166384 J2.407094
G02 X80.637540 Y120.794065 Z-0.200000 I0.000000 J4.865819
G02 X79.824537 Y121.287655 Z-0.200000 I0.603043 J1.909636
G01 X79.824537 Y121.287655 Z-0.200000
G00 Z3.000000

(End cutting path id: path1)


(Start cutting path id: path1)
(Change tool to Cylindrical cutter)

G00 Z3.000000
G00 X83.601643 Y123.257928

G01 Z-0.200000 F100.0(Penetrate)
G03 X82.597184 Y124.678222 Z-0.200000 I-1.506370 J0.000000 F400.000000
G03 X80.760418 Y124.261975 Z-0.200000 I-0.588289 J-1.664724
G03 X80.576801 Y122.654470 Z-0.200000 I0.919240 J-0.919239
G03 X82.249996 Y121.875123 Z-0.200000 I1.435329 J0.895754
G03 X83.243129 Y122.378258 Z-0.200000 I-0.243025 J1.711440
G03 X83.601643 Y123.257928 Z-0.200000 I-0.899948 J0.879670
G01 X83.601643 Y123.257928 Z-0.200000
G00 Z3.000000

(End cutting path id: path1)


(Start cutting path id: path1)
(Change tool to Cylindrical cutter)

G00 Z3.000000
G00 X87.019025 Y121.287655

G01 Z-0.200000 F100.0(Penetrate)
G02 X86.556344 Y122.232366 Z-0.200000 I1.147805 J1.147805 F400.000000
G02 X86.309711 Y125.751536 Z-0.200000 I31.561756 J3.980162
G02 X86.478762 Y129.185914 Z-0.200000 I27.015931 J0.391536
G02 X86.899117 Y129.561317 Z-0.200000 I0.420355 J-0.047643
G02 X87.223320 Y129.285981 Z-0.200000 I0.000000 J-0.328540
G02 X87.498657 Y125.907944 Z-0.200000 I-20.584485 J-3.378037
G03 X87.983409 Y122.628858 Z-0.200000 I11.332999 J-0.000000
G03 X88.697739 Y121.941004 Z-0.200000 I0.970957 J0.293490
G02 X89.700506 Y121.475859 Z-0.200000 I-0.787359 J-3.010864
G02 X89.896820 Y121.097821 Z-0.200000 I-0.265833 J-0.378038
G02 X89.094545 Y120.346724 Z-0.200000 I-0.752729 J0.000000
G02 X87.019025 Y121.287655 Z-0.200000 I0.213032 J3.229483
G01 X87.019025 Y121.287655 Z-0.200000
G00 Z3.000000

(End cutting path id: path1)


(Start cutting path id: path1)
(Change tool to Cylindrical cutter)

G00 Z3.000000
G00 X112.763030 Y112.774177

G01 Z-0.200000 F100.0(Penetrate)
G03 X114.139072 Y113.113086 Z-0.200000 I0.000000 J2.962962 F400.000000
G03 X114.477980 Y113.673488 Z-0.200000 I-0.293872 J0.560402
G03 X114.101294 Y114.196112 Z-0.200000 I-0.550894 J0.000000
G03 X111.780050 Y114.572799 Z-0.200000 I-2.321244 J-6.963714
G03 X107.907887 Y113.348870 Z-0.200000 I-0.000000 J-6.737175
G03 X106.683960 Y110.993623 Z-0.200000 I1.654180 J-2.355247
G03 X107.111995 Y110.620371 Z-0.200000 I0.376757 J0.000000
G03 X108.866010 Y111.293393 Z-0.200000 I-0.561139 J4.084581
G02 X111.139642 Y112.476146 Z-0.200000 I6.187759 J-9.118164
G02 X112.763030 Y112.774177 Z-0.200000 I1.623388 J-4.272314
G01 X112.763030 Y112.774177 Z-0.200000
G00 Z3.000000

(End cutting path id: path1)


(Start cutting path id: path1)
(Change tool to Cylindrical cutter)

G00 Z3.000000
G00 X121.651380 Y107.338896

G01 Z-0.200000 F100.0(Penetrate)
G03 X122.454797 Y112.734966 Z-0.200000 I-7.139241 J3.820802 F400.000000
G03 X120.216670 Y114.572799 Z-0.200000 I-2.238127 J-0.443888
G03 X119.308577 Y113.938990 Z-0.200000 I-0.000000 J-0.967442
G03 X118.674770 Y110.376014 Z-0.200000 I9.697821 J-3.562976
G03 X118.801889 Y108.099473 Z-0.200000 I20.448594 J-0.000000
G03 X119.038680 Y107.127575 Z-0.200000 I3.911468 J0.438188
G03 X120.206708 Y106.392283 Z-0.200000 I1.075185 J0.412590
G03 X121.651380 Y107.338896 Z-0.200000 I-0.145393 J1.797590
G01 X121.651380 Y107.338896 Z-0.200000
G00 Z3.000000

(End cutting path id: path1)


(Start cutting path id: path1)
(Change tool to Cylindrical cutter)

G00 Z3.000000
G00 X124.689420 Y104.990448

G01 Z-0.200000 F100.0(Penetrate)
G03 X126.586630 Y107.232167 Z-0.200000 I-1.881891 J3.516363 F400.000000
G03 X127.667880 Y113.821047 Z-0.200000 I-19.534908 J6.588880
G03 X127.417907 Y115.797876 Z-0.200000 I-7.941537 J0.000000
G03 X126.372900 Y118.859625 Z-0.200000 I-20.275847 J-5.211149
G03 X124.237164 Y121.992517 Z-0.200000 I-9.122071 J-3.924218
G03 X122.601111 Y122.686576 Z-0.200000 I-1.689045 J-1.706156
G03 X120.935202 Y122.065797 Z-0.200000 I-0.053061 J-2.403297
G03 X118.658270 Y119.029950 Z-0.200000 I6.677658 J-7.380138
G03 X118.095924 Y116.734065 Z-0.200000 I5.065587 J-2.457559
G03 X118.584270 Y116.454047 Z-0.200000 I0.319197 J-0.009170
G02 X123.431116 Y115.134937 Z-0.200000 I1.812882 J-2.902884
G02 X123.801450 Y106.459743 Z-0.200000 I-9.065858 J-4.732513
G03 X123.894083 Y105.208761 Z-0.200000 I1.278615 J-0.534241
G03 X124.689410 Y104.990448 Z-0.200000 I0.512673 J0.309831
G01 X124.689420 Y104.990448 Z-0.200000
G00 Z3.000000

(End cutting path id: path1)


(Start cutting path id: path1)
(Change tool to Cylindrical cutter)

G00 Z3.000000
G00 X115.935000 Y31.410550

G01 Z-0.200000 F100.0(Penetrate)
G03 X116.304112 Y32.217954 Z-0.200000 I-0.556452 J0.742460 F400.000000
G03 X115.826620 Y32.955220 Z-0.200000 I-0.906096 J-0.063578
G03 X114.641996 Y33.024188 Z-0.200000 I-0.666865 J-1.246066
G03 X112.421090 Y31.614380 Z-0.200000 I2.544473 J-6.462599
G03 X110.496164 Y29.478008 Z-0.200000 I12.150762 J-12.883539
G03 X110.325871 Y28.931040 Z-0.200000 I0.663428 J-0.506545
G03 X110.595596 Y28.717168 Z-0.200000 I0.228437 J0.011076
G03 X112.529480 Y29.378890 Z-0.200000 I-1.249804 J6.809312
G03 X114.737294 Y30.607692 Z-0.200000 I-19.351740 J37.367492
G03 X115.935000 Y31.410550 Z-0.200000 I-7.020793 J11.768438
G01 X115.935000 Y31.410550 Z-0.200000
G00 Z3.000000

(End cutting path id: path1)


(Footer)
M5
G00 X0.0000 Y0.0000
M2
(Using default footer. To add your own footer create file "footer" in the output dir.)
(end)
%